images/stos.svg

<svg height="250" viewBox="0 0 250 250" width="250" xmlns="http://www.w3.org/2000/svg"><path d="m245.917969 125c0 66.78125-54.136719 120.917969-120.917969 120.917969s-120.917969-54.136719-120.917969-120.917969 54.136719-120.917969 120.917969-120.917969 120.917969 54.136719 120.917969 120.917969zm0 0" fill="#00847b"/><g fill="#fff" fill-rule="evenodd"><path d="m154.640625 170.832031c0 15.640625-12.695313 28.277344-28.363281 28.277344-15.636719 0-28.359375-12.636719-28.359375-28.277344 0-4.472656 1.027343-8.691406 2.886719-12.441406l-11.945313-9.722656-.277344-.167969c-3.914062 6.527344-6.136719 14.195312-6.136719 22.332031 0 24.113281 19.609376 43.695313 43.832032 43.695313s43.863281-19.554688 43.863281-43.695313c0-24.109375-19.613281-43.691406-43.835937-43.691406h-106.609376l28.222657 22.277344v-6.863281h78.359375c15.640625.027343 28.363281 12.667968 28.363281 28.277343zm0 0"/><path d="m95.359375 79.167969c0-15.640625 12.695313-28.277344 28.363281-28.277344 15.667969 0 28.332032 12.636719 28.332032 28.277344 0 4.472656-1.027344 8.691406-2.886719 12.441406l11.941406 9.722656.28125.167969c3.914063-6.527344 6.136719-14.195312 6.136719-22.332031 0-24.113281-19.609375-43.695313-43.832032-43.695313-24.222656 0-43.835937 19.554688-43.835937 43.695313 0 24.109375 19.613281 43.691406 43.835937 43.691406h106.582032l-28.222656-22.277344v6.863281h-78.332032c-15.640625-.027343-28.363281-12.667968-28.363281-28.277343zm0 0"/></g></svg>

<!-- Generator: Adobe Illustrator 24.3.0, SVG Export Plug-In . SVG Version: 6.00 Build 0)  -->
<svg xmlns="http://www.w3.org/2000/svg" xmlns:xlink="http://www.w3.org/1999/xlink" width="250px" height="250px" viewBox="0 0 250 250" version="1.1">
<g id="surface1">
<path style=" stroke:none;fill-rule:nonzero;fill:rgb(0%,51.764709%,48.235294%);fill-opacity:1;" d="M 245.917969 125 C 245.917969 191.78125 191.78125 245.917969 125 245.917969 C 58.21875 245.917969 4.082031 191.78125 4.082031 125 C 4.082031 58.21875 58.21875 4.082031 125 4.082031 C 191.78125 4.082031 245.917969 58.21875 245.917969 125 Z M 245.917969 125 "/>
<path style=" stroke:none;fill-rule:evenodd;fill:rgb(100%,100%,100%);fill-opacity:1;" d="M 154.640625 170.832031 C 154.640625 186.472656 141.945312 199.109375 126.277344 199.109375 C 110.640625 199.109375 97.917969 186.472656 97.917969 170.832031 C 97.917969 166.359375 98.945312 162.140625 100.804688 158.390625 L 88.859375 148.667969 L 88.582031 148.5 C 84.667969 155.027344 82.445312 162.695312 82.445312 170.832031 C 82.445312 194.945312 102.054688 214.527344 126.277344 214.527344 C 150.5 214.527344 170.140625 194.972656 170.140625 170.832031 C 170.140625 146.722656 150.527344 127.140625 126.304688 127.140625 L 19.695312 127.140625 L 47.917969 149.417969 L 47.917969 142.554688 L 126.277344 142.554688 C 141.917969 142.582031 154.640625 155.222656 154.640625 170.832031 Z M 154.640625 170.832031 "/>
<path style=" stroke:none;fill-rule:evenodd;fill:rgb(100%,100%,100%);fill-opacity:1;" d="M 95.359375 79.167969 C 95.359375 63.527344 108.054688 50.890625 123.722656 50.890625 C 139.390625 50.890625 152.054688 63.527344 152.054688 79.167969 C 152.054688 83.640625 151.027344 87.859375 149.167969 91.609375 L 161.109375 101.332031 L 161.390625 101.5 C 165.304688 94.972656 167.527344 87.304688 167.527344 79.167969 C 167.527344 55.054688 147.917969 35.472656 123.695312 35.472656 C 99.472656 35.472656 79.859375 55.027344 79.859375 79.167969 C 79.859375 103.277344 99.472656 122.859375 123.695312 122.859375 L 230.277344 122.859375 L 202.054688 100.582031 L 202.054688 107.445312 L 123.722656 107.445312 C 108.082031 107.417969 95.359375 94.777344 95.359375 79.167969 Z M 95.359375 79.167969 "/>
</g>
</svg>
